X:18884
T:Wm. Pitt
M:2/2
L:1/8
S:Armitt MS
N:Title - looks more like Pith.  No key signature given, but I think it's
N:meant to follow on from the tune above, which has key sig. on first two
N:lines but not on third line.
K:D major
d2dfa2af|gefd cecA|d2dfa2ag bgecd2d2:||:Adcd fdcd|Bgfg eaga|Adcd fdcd Bg
ecd2d2||:


